X: 35930
T: Sant Hern
R: polka
M: 2/4
K: Bminor
|:F|B>c df|e2 e2|fe de|f2 fd/c/|
B>c df|e2 ed/e/|fe cd|1 B2 BF:|2 B2 Bf||
|:ag eg|ff df|a/b/a/g/ eg|f2 f2|
g>f eg|fd ef|d2 c2|1 B2 Bf:|2 B2 B2||

